svg/color/utsb.svg

<svg width="64" height="65" viewBox="0 0 64 65" fill="none" xmlns="http://www.w3.org/2000/svg">
<rect y="0.303711" width="64" height="64" rx="32" fill="#152921"/>
<rect x="0.5" y="0.803711" width="63" height="63" rx="31.5" stroke="#070B14" stroke-opacity="0.15"/>
<path d="M19.3243 36.5689V28.1902C19.3243 27.6285 19.6987 27.254 20.2604 27.254H27.8247V18.6787H20.0357C14.6808 18.6787 10 22.8353 10 28.34V36.7187C10 42.186 14.0443 45.9194 19.4366 45.9194C22.8443 45.9194 25.9523 44.3579 29.2102 41.2123L42.4664 28.2932C43.0281 27.7315 43.44 27.254 43.9268 27.254C44.3761 27.254 44.6757 27.6191 44.6757 28.0685V36.4079C44.6757 36.9696 44.3012 37.344 43.7396 37.344H36.1753V45.9194H44.0017C49.3192 45.9194 54 41.7628 54 36.2206V27.9187C54 22.4515 49.9557 18.6787 44.5634 18.6787C41.1932 18.6787 38.0477 20.2796 34.7898 23.4251L21.5336 36.3442C20.9719 36.906 20.56 37.344 20.0732 37.344C19.6238 37.344 19.3243 37.0183 19.3243 36.5689Z" fill="#BFA167"/>
</svg>

<svg xmlns="http://www.w3.org/2000/svg" width="64" height="65" fill="none" viewBox="0 0 64 65"><rect width="64" height="64" y=".304" fill="#152921" rx="32"/><rect width="63" height="63" x=".5" y=".804" stroke="#070B14" stroke-opacity=".15" rx="31.5"/><path fill="#BFA167" d="M19.324 36.569V28.19c0-.562.375-.936.936-.936h7.565v-8.575h-7.79C14.682 18.679 10 22.835 10 28.34v8.379c0 5.467 4.044 9.2 9.437 9.2 3.407 0 6.515-1.561 9.773-4.707l13.256-12.919c.562-.561.974-1.039 1.46-1.039.45 0 .75.365.75.814v8.34c0 .562-.375.936-.936.936h-7.565v8.575h7.827c5.317 0 9.998-4.156 9.998-9.698v-8.302c0-5.468-4.044-9.24-9.437-9.24-3.37 0-6.515 1.6-9.773 4.746l-13.256 12.92c-.562.561-.974.999-1.46.999-.45 0-.75-.326-.75-.775"/></svg>
